assets/Confetti ball/Flat/confetti_ball_flat.svg

<svg width="32" height="32" viewBox="0 0 32 32" fill="none" xmlns="http://www.w3.org/2000/svg">
<g clip-path="url(#clip0_18_625)">
<path d="M3.95 20.36C1.35 17.76 1.35 13.55 3.95 10.95C6.55 8.35 10.76 8.35 13.36 10.95L14.58 12.17L5.17 21.58L3.95 20.36Z" fill="#F9C23C"/>
<path d="M28.1 20.36C30.7 17.76 30.7 13.55 28.1 10.95C25.51 8.35 21.29 8.35 18.69 10.95L17.47 12.17L26.88 21.58L28.1 20.36Z" fill="#F9C23C"/>
<path d="M11.7 18.7C9.1 21.3 6.16 22.57 5.13 21.55C4.11 20.52 5.38 17.58 7.98 14.98C10.58 12.38 13.53 11.12 14.55 12.14C15.57 13.16 14.3 16.1 11.7 18.7Z" fill="#6D4534"/>
<path d="M20.36 18.7C22.96 21.3 25.89 22.58 26.92 21.55C27.95 20.52 26.67 17.59 24.07 14.99C21.47 12.39 18.53 11.12 17.51 12.14C16.49 13.16 17.76 16.1 20.36 18.7Z" fill="#6D4534"/>
<path d="M12.2289 21.4712C12.2289 21.8634 11.911 22.1812 11.5189 22.1812C11.1267 22.1812 10.8089 21.8634 10.8089 21.4712C10.8089 21.0791 11.1267 20.7612 11.5189 20.7612C11.911 20.7612 12.2289 21.0791 12.2289 21.4712Z" fill="#F9C23C"/>
<path d="M8.50999 28.17C8.90211 28.17 9.21999 27.8521 9.21999 27.46C9.21999 27.0679 8.90211 26.75 8.50999 26.75C8.11787 26.75 7.79999 27.0679 7.79999 27.46C7.79999 27.8521 8.11787 28.17 8.50999 28.17Z" fill="#F9C23C"/>
<path d="M23 29C23.5523 29 24 28.5523 24 28C24 27.4477 23.5523 27 23 27C22.4477 27 22 27.4477 22 28C22 28.5523 22.4477 29 23 29Z" fill="#F9C23C"/>
<path d="M22.89 14.74C23.05 14.8 23.17 14.91 23.25 15.04C23.36 15.22 23.39 15.46 23.3 15.68C22.87 16.79 21.61 18.28 21.43 18.48C21.044 18.9518 20.5991 19.3574 20.0954 19.6967C19.9293 20.2996 19.6719 20.864 19.33 21.39C19.11 21.72 18.66 21.82 18.33 21.6C18 21.38 17.9 20.93 18.12 20.6C18.1758 20.5145 18.2284 20.4273 18.278 20.3386C17.8761 20.3208 17.4959 20.1813 17.14 19.92C17.119 19.9043 17.0991 19.8876 17.0803 19.8702C16.6926 19.5712 16.4374 19.1437 16.36 18.66C16.28 18.16 16.4 17.66 16.7 17.25C17.32 16.4 18.51 16.21 19.36 16.83L19.38 16.85C19.63 17.03 19.83 17.23 19.97 17.47C20.0309 17.569 20.0824 17.6731 20.1246 17.7822C20.1952 17.707 20.2637 17.6296 20.33 17.55C20.33 17.545 20.3325 17.5425 20.335 17.54C20.3375 17.5375 20.34 17.535 20.34 17.53C20.69 17.13 21.67 15.91 21.96 15.15C22.1 14.78 22.52 14.6 22.89 14.74ZM18.8199 18.7783C18.8779 18.3035 18.716 18.1357 18.54 18.01L18.52 17.99C18.31 17.84 18.02 17.88 17.87 18.09C17.8 18.19 17.77 18.31 17.79 18.43C17.81 18.55 17.87 18.66 17.97 18.73C17.9897 18.7448 18.0085 18.7604 18.0263 18.7767C18.1967 18.8969 18.4094 18.9705 18.8199 18.7783Z" fill="#00A6ED"/>
<path d="M16.005 30C16.56 30 17.01 29.5523 17.01 29C17.01 28.4477 16.56 28 16.005 28C15.45 28 15 28.4477 15 29C15 29.5523 15.45 30 16.005 30Z" fill="#00A6ED"/>
<path d="M4.42001 26.48C6.04001 25.09 7.02001 23.15 7.18001 21.02C7.29001 19.56 7.00001 18.14 6.37001 16.87C6.71001 16.39 7.12001 15.92 7.56001 15.45C8.58001 17.15 9.06001 19.13 8.91001 21.15C8.71001 23.74 7.52001 26.1 5.55001 27.79C5.39001 27.93 5.19001 28 4.99001 28C4.74001 28 4.50001 27.9 4.33001 27.7C4.02001 27.34 4.06001 26.79 4.42001 26.48Z" fill="#00A6ED"/>
<path d="M15.22 22.16C15.16 22.69 15.44 23.2 15.92 23.43C16.35 23.64 16.53 24.15 16.32 24.57C16.18 24.89 15.87 25.07 15.54 25.07C15.42 25.07 15.29 25.05 15.17 24.99C14.01 24.44 13.33 23.22 13.49 21.95L13.73 20.02C13.78 19.66 13.67 19.31 13.42 19.04C13.17 18.77 12.85 18.64 12.47 18.64L11.93 18.65C10.84 18.69 9.79999 18.09 9.25999 17.12L8.04999 14.92C8.48999 14.48 8.93999 14.1 9.37999 13.75L10.77 16.28C11 16.69 11.42 16.95 11.89 16.92L12.44 16.91C13.28 16.89 14.13 17.24 14.71 17.88C15.29 18.52 15.56 19.37 15.46 20.23L15.22 22.16Z" fill="#F70A8D"/>
<path d="M26.19 27.46C25.96 27.46 25.73 27.36 25.56 27.18C22.89 24.3 23.03 19.81 25.84 17.09C26.22 17.64 26.53 18.17 26.76 18.67C24.92 20.75 24.9 23.93 26.83 26.01C27.15 26.36 27.13 26.9 26.78 27.23C26.61 27.38 26.4 27.46 26.19 27.46Z" fill="#F70A8D"/>
<path d="M10.22 29.88C10.35 29.98 10.51 30.03 10.67 30.03C10.91 30.03 11.14 29.92 11.3 29.71C12.63 27.87 12.91 25.53 12.03 23.44C11.86 23.05 11.41 22.86 11.02 23.03C10.63 23.2 10.45 23.65 10.61 24.04C11.27 25.62 11.06 27.41 10.05 28.8C9.8 29.15 9.88 29.63 10.22 29.88Z" fill="#F70A8D"/>
<path d="M19.51 25.3888C19.9794 25.3888 20.36 25.0082 20.36 24.5388C20.36 24.0693 19.9794 23.6888 19.51 23.6888C19.0406 23.6888 18.66 24.0693 18.66 24.5388C18.66 25.0082 19.0406 25.3888 19.51 25.3888Z" fill="#F70A8D"/>
</g>
<defs>
<clipPath id="clip0_18_625">
<rect width="32" height="32" fill="white"/>
</clipPath>
</defs>
</svg>

<svg xmlns="http://www.w3.org/2000/svg" width="32" height="32" fill="none"><g clip-path="url(#a)"><path fill="#F9C23C" d="M3.95 20.36c-2.6-2.6-2.6-6.81 0-9.41 2.6-2.6 6.81-2.6 9.41 0l1.22 1.22-9.41 9.41-1.22-1.22ZM28.1 20.36c2.6-2.6 2.6-6.81 0-9.41-2.59-2.6-6.81-2.6-9.41 0l-1.22 1.22 9.41 9.41 1.22-1.22Z"/><path fill="#6D4534" d="M11.7 18.7c-2.6 2.6-5.54 3.87-6.57 2.85-1.02-1.03.25-3.97 2.85-6.57s5.55-3.86 6.57-2.84c1.02 1.02-.25 3.96-2.85 6.56ZM20.36 18.7c2.6 2.6 5.53 3.88 6.56 2.85 1.03-1.03-.25-3.96-2.85-6.56-2.6-2.6-5.54-3.87-6.56-2.85-1.02 1.02.25 3.96 2.85 6.56Z"/><path fill="#F9C23C" d="M12.229 21.471a.71.71 0 1 1-1.42 0 .71.71 0 0 1 1.42 0ZM8.51 28.17a.71.71 0 1 0 0-1.42.71.71 0 0 0 0 1.42ZM23 29a1 1 0 1 0 0-2 1 1 0 0 0 0 2Z"/><path fill="#00A6ED" d="M22.89 14.74a.716.716 0 0 1 .41.94c-.43 1.11-1.69 2.6-1.87 2.8-.386.472-.83.877-1.335 1.217a6.035 6.035 0 0 1-.765 1.693c-.22.33-.67.43-1 .21a.726.726 0 0 1-.21-1c.056-.085.108-.173.158-.261a2.05 2.05 0 0 1-1.198-.469 1.899 1.899 0 0 1-.38-2.62c.62-.85 1.81-1.04 2.66-.42l.02.02a2.038 2.038 0 0 1 .745.932c.07-.075.139-.152.205-.232 0-.005.003-.008.005-.01s.005-.005.005-.01c.35-.4 1.33-1.62 1.62-2.38a.72.72 0 0 1 .93-.41Zm-4.07 4.038c.058-.474-.104-.642-.28-.768l-.02-.02a.458.458 0 0 0-.73.44c.02.12.08.23.18.3.02.015.039.03.056.047.17.12.383.194.794.001ZM16.005 30c.555 0 1.005-.448 1.005-1s-.45-1-1.005-1C15.45 28 15 28.448 15 29s.45 1 1.005 1ZM4.42 26.48a7.93 7.93 0 0 0 2.76-5.46c.11-1.46-.18-2.88-.81-4.15.34-.48.75-.95 1.19-1.42 1.02 1.7 1.5 3.68 1.35 5.7a9.669 9.669 0 0 1-3.36 6.64c-.16.14-.36.21-.56.21-.25 0-.49-.1-.66-.3a.868.868 0 0 1 .09-1.22Z"/><path fill="#F70A8D" d="M15.22 22.16c-.06.53.22 1.04.7 1.27.43.21.61.72.4 1.14-.14.32-.45.5-.78.5-.12 0-.25-.02-.37-.08a2.956 2.956 0 0 1-1.68-3.04l.24-1.93c.05-.36-.06-.71-.31-.98s-.57-.4-.95-.4l-.54.01c-1.09.04-2.13-.56-2.67-1.53l-1.21-2.2c.44-.44.89-.82 1.33-1.17l1.39 2.53c.23.41.65.67 1.12.64l.55-.01c.84-.02 1.69.33 2.27.97.58.64.85 1.49.75 2.35l-.24 1.93ZM26.19 27.46c-.23 0-.46-.1-.63-.28-2.67-2.88-2.53-7.37.28-10.09.38.55.69 1.08.92 1.58-1.84 2.08-1.86 5.26.07 7.34.32.35.3.89-.05 1.22-.17.15-.38.23-.59.23ZM10.22 29.88c.13.1.29.15.45.15.24 0 .47-.11.63-.32 1.33-1.84 1.61-4.18.73-6.27a.771.771 0 0 0-1.01-.41.78.78 0 0 0-.41 1.01 4.87 4.87 0 0 1-.56 4.76c-.25.35-.17.83.17 1.08ZM19.51 25.389a.85.85 0 1 0 0-1.7.85.85 0 0 0 0 1.7Z"/></g><defs><clipPath id="a"><path fill="#fff" d="M0 0h32v32H0z"/></clipPath></defs></svg>
